core/img/actions/settings.svg

<svg width="16" height="16" version="1.1" viewBox="0 0 16 16" xmlns="http://www.w3.org/2000/svg"><path d="m6.94 0.5c-0.24 0-0.44 0.2-0.44 0.44v1.26c-0.5 0.14-1.05 0.35-1.53 0.65l-0.91-0.91c-0.16-0.18-0.46-0.19-0.62 0l-1.5 1.5c-0.18 0.17-0.18 0.46 0 0.62l0.91 0.91c-0.284 0.48-0.5 1-0.65 1.53h-1.26c-0.24 0-0.44 0.2-0.44 0.44v2.12c0 0.25 0.19 0.44 0.44 0.44h1.26c0.14 0.54 0.36 1.05 0.65 1.53l-0.91 0.91c-0.18 0.17-0.18 0.45 0 0.62l1.5 1.5c0.18 0.18 0.46 0.18 0.62 0l0.91-0.91c0.48 0.285 1 0.5 1.53 0.65v1.26c0 0.25 0.2 0.44 0.44 0.44h2.12c0.24 0 0.45-0.2 0.44-0.44v-1.26c0.54-0.14 1.05-0.36 1.53-0.65l0.91 0.91c0.17 0.18 0.45 0.18 0.62 0l1.5-1.5c0.18-0.17 0.18-0.45 0-0.62l-0.91-0.91c0.29-0.48 0.5-1 0.65-1.53h1.26c0.24 0 0.45-0.2 0.44-0.44v-2.12c0-0.24-0.2-0.44-0.44-0.44h-1.26c-0.14-0.54-0.36-1.05-0.65-1.53l0.91-0.91c0.18-0.17 0.18-0.45 0-0.62l-1.5-1.5c-0.17-0.18-0.45-0.18-0.62 0l-0.91 0.91c-0.48-0.29-1-0.5-1.53-0.65v-1.26c0-0.24-0.2-0.44-0.44-0.44h-2.12zm1.06 4a3.5 3.5 0 0 1 3.5 3.5 3.5 3.5 0 0 1-3.5 3.5 3.5 3.5 0 0 1-3.5-3.5 3.5 3.5 0 0 1 3.5-3.5z" opacity=".5"/></svg>

<svg xmlns="http://www.w3.org/2000/svg" width="16" height="16"><path d="M6.94.5C6.7.5 6.5.7 6.5.94V2.2c-.5.14-1.05.35-1.53.65l-.91-.91a.416.416 0 0 0-.62 0l-1.5 1.5c-.18.17-.18.46 0 .62l.91.91c-.284.48-.5 1-.65 1.53H.94c-.24 0-.44.2-.44.44v2.12c0 .25.19.44.44.44H2.2c.14.54.36 1.05.65 1.53l-.91.91c-.18.17-.18.45 0 .62l1.5 1.5c.18.18.46.18.62 0l.91-.91c.48.285 1 .5 1.53.65v1.26c0 .25.2.44.44.44h2.12c.24 0 .45-.2.44-.44V13.8c.54-.14 1.05-.36 1.53-.65l.91.91c.17.18.45.18.62 0l1.5-1.5c.18-.17.18-.45 0-.62l-.91-.91c.29-.48.5-1 .65-1.53h1.26c.24 0 .45-.2.44-.44V6.94c0-.24-.2-.44-.44-.44H13.8c-.14-.54-.36-1.05-.65-1.53l.91-.91c.18-.17.18-.45 0-.62l-1.5-1.5a.423.423 0 0 0-.62 0l-.91.91c-.48-.29-1-.5-1.53-.65V.94C9.5.7 9.3.5 9.06.5H6.94zM8 4.5A3.5 3.5 0 0 1 11.5 8 3.5 3.5 0 0 1 8 11.5 3.5 3.5 0 0 1 4.5 8 3.5 3.5 0 0 1 8 4.5z" opacity=".5"/></svg>
